www/assets/icons/local_mall.svg

<svg xmlns="http://www.w3.org/2000/svg" width="24" height="24" viewBox="0 0 24 24" fill='currentColor'><path d="M19 6.5h-2c0-2.76-2.24-5-5-5s-5 2.24-5 5H5c-1.1 0-1.99.9-1.99 2L3 20.5c0 1.1.9 2 2 2h14c1.1 0 2-.9 2-2v-12c0-1.1-.9-2-2-2m-7-3c1.66 0 3 1.34 3 3H9c0-1.66 1.34-3 3-3m0 10c-2.76 0-5-2.24-5-5h2c0 1.66 1.34 3 3 3s3-1.34 3-3h2c0 2.76-2.24 5-5 5"/></svg>

<svg width="24" height="24" viewBox="0 0 24 24" xmlns="http://www.w3.org/2000/svg" fill='currentColor'><path d="M19 6.5H17C17 3.74 14.76 1.5 12 1.5C9.24 1.5 7 3.74 7 6.5H5C3.9 6.5 3.01 7.4 3.01 8.5L3 20.5C3 21.6 3.9 22.5 5 22.5H19C20.1 22.5 21 21.6 21 20.5V8.5C21 7.4 20.1 6.5 19 6.5ZM12 3.5C13.66 3.5 15 4.84 15 6.5H9C9 4.84 10.34 3.5 12 3.5ZM12 13.5C9.24 13.5 7 11.26 7 8.5H9C9 10.16 10.34 11.5 12 11.5C13.66 11.5 15 10.16 15 8.5H17C17 11.26 14.76 13.5 12 13.5Z"/></svg>
